X:1
T:Title
%%score { ( 1 3 ) | ( 2 4 ) }
L:1/8
M:4/4
K:Eb
V:1 treble nm="Grand Piano"
V:3 treble 
V:2 bass 
V:4 bass 
V:1
 z4 z2[Q:1/4=96] B,2 | E>E EG B2 G2 | c>c cd e2 c2 | [GB]>[GB] [GB]c B2 E2 | A2 G2 [DF]2 B,2 | %5
 E>E EG B2 G2 | c>c cd e2 c2 | [GB]>[GB] [GB]c B2 G2 |[M:7/8] z2 [DF]2 z z2 |[M:1/4] B2 | %10
[M:4/4] [Ge]>[Ge] [Ge][Ac] [GB]2 G2 | c>d ec [GB]2 [FA]2 | G>F EF G2 [Ge]2 | %13
[M:9/8] [Fd]2 [Ec]- [Ec] [B,B]2- [B,B][Ac][Ad] |[M:4/4] [Ge]>[Gd] [Ge][Ac] [GB]2 [EG]2 | %15
 [DA]>[AB] [Ac][FA] G2 F2 | z4 z [Ge]3 |[M:7/8] [Ge]2 z z z z2 |] %18
V:2
 z4 z2 [E,G,]2 | [E,G,B,]>[E,G,B,] [E,G,B,][E,B,E] [E,G,E]2 [E,B,E]2 | %2
 [A,E]>[A,E] [A,E][A,B,E] [A,CE]2 [A,EA]2 | [E,E]>[E,E] [E,B,][E,A,E] [E,G,E]2 [G,B,]2 | %4
 [F,B,D]2 [E,B,E]2 [B,,B,]2 [D,A,]2 | [E,G,B,]>[E,G,B,] [E,G,B,][E,B,E] [E,G,E]2 [E,B,E]2 | %6
 [A,E]>[A,E] [A,E][A,B,E] [A,CE]2 [A,EA]2 | [E,E]>[E,E] [E,E][E,A,E] [G,B,E]2 [B,E]2 | %8
[M:7/8] [F,B,D]2 B, z [E,G,]3 |[M:1/4] [E,G,E]2 | %10
[M:4/4] [E,B,]>[E,B,] [E,B,][E,E] [E,E]2 [E,B,E]2 | %11
 [A,E]>[A,B,E] [A,CE][A,EA][K:bass] [E,E]2 [E,C]2 | %12
 [E,B,E]>[E,A,E] [E,G,][E,A,E] [E,B,E]2 [E,B,]2 | %13
[M:9/8] [F,B,]2 [F,=A,]- [F,A,] z A- A[D,B,][F,B,] | %14
[M:4/4] [E,B,]>[E,B,] [E,B,][E,E] [E,E]2 [E,B,]2 | [F,B,]>[D,B,] [B,,B,][D,B,] [E,B,E]2 [A,B,D]2 | %16
 [G,B,]>[E,B,E] [B,,B,]>[D,B,] [E,B,][C,C] C,2 |[M:7/8] z B, [B,,B,]2 [E,B,]3 |] %18
V:3
 x8 | x8 | x8 | x8 | x8 | x8 | x8 | x8 |[M:7/8] A2 z A, E3 |[M:1/4] x2 |[M:4/4] x8 | x8 | x8 | %13
[M:9/8] z3 z .D2 z3 |[M:4/4] x8 | x8 | E>G [Fd]>[Ac] .[GB]2 E2 |[M:7/8] E z [Ad]2 [Ge]3 |] %18
V:4
 x8 | x8 | x8 | x8 | x8 | x8 | x8 | x8 |[M:7/8] z2 B,,2 z z2 |[M:1/4] x2 |[M:4/4] x8 | %11
 x4[K:bass] x4 | x8 |[M:9/8] z3 z B,,2- B,, z z |[M:4/4] x8 | x8 | x8 |[M:7/8] B,,2 z z z z2 |] %18

